packages/ffe-icons/icons/filled/sm/water_damage.svg

<svg xmlns="http://www.w3.org/2000/svg" height="20" viewBox="0 -960 960 960" width="20"><path d="M276.309-164.001q-26.923 0-45.615-18.693-18.693-18.692-18.693-45.615v-300.385L156-487.231q-8.923 6.307-18.999 4.884-10.077-1.423-16.769-9.961-6.692-8.923-5.462-19.192 1.231-10.269 10.154-16.961L441-767.23q17.693-13.076 39-13.076t39 13.076l316.461 239.154q8.923 6.692 10.153 16.961 1.231 10.269-5.461 18.807-6.692 8.538-16.961 10.153-10.269 1.616-18.807-4.692l-56.386-42.232v300.77q0 26.923-18.693 45.615-18.692 18.693-45.615 18.693H276.309Zm203.691-151q28.154 0 48.576-20.423 20.423-20.422 20.423-48.576 0-25.154-11.692-50.153-11.692-25-57.307-89.307-46.384 69.23-57.692 91.768-11.307 22.538-11.307 47.692 0 28.154 20.423 48.576 20.422 20.423 48.576 20.423Z"/></svg>

<svg xmlns="http://www.w3.org/2000/svg" height="20" viewBox="0 -960 960 960" width="20"><path d="M276.31-164q-26.92 0-45.62-18.69Q212-201.39 212-228.31v-300.38l-56 41.46q-8.92 6.31-19 4.88-10.08-1.42-16.77-9.96-6.69-8.92-5.46-19.19 1.23-10.27 10.15-16.96L441-767.23q17.69-13.08 39-13.08t39 13.08l316.46 239.15q8.92 6.7 10.15 16.96 1.23 10.27-5.46 18.81-6.69 8.54-16.96 10.16-10.27 1.61-18.81-4.7L748-529.08v300.77q0 26.92-18.69 45.62Q710.61-164 683.69-164H276.31ZM480-315q28.15 0 48.58-20.42Q549-355.85 549-384q0-25.15-11.69-50.15-11.7-25-57.31-89.31-46.38 69.23-57.69 91.77Q411-409.15 411-384q0 28.15 20.42 48.58Q451.85-315 480-315Z"/></svg>
